!!!!SEGMENT: pl-sa--237-a-vi-41--004_fils-anton--symfonia-in-d-presto.krn
!!!cenid: 17xx:608
!!!COM: Fils, Anton
!!!COM-rismID:
!!!CDT: <1733/09/22-<1760/03/14
!!!CNT: German
!!!OPR: Symfonia in D
!!!OTL: Presto
!!!OMV: 004
!!!PDT:
!!!AGN: Secular
!!!SMS-siglum: PL-SA
!!!SMS-shelfmark: 237/A VI 41
!!!SMS-shelfwork: 001-004 M
!!!SMS-variant:
!!!SMS-altvar:
!!!NIFC-rismSourceID: 1001035310
!!!NIFC-islandoraID:
!!!URL-pdf-islandora:
!!!URL-scan: https://bc.bdsandomierz.pl/dlibra/publication/1590/edition/1558/content @EN{Scan on Cyfrowa Biblioteka Diecezjalna w Sandomierzu} @PL{Skany w portalu Cyfrowa Biblioteka Diecezjalna w Sandomierzu}
!!!ONB-nifc: UWAGA: części Symfonii: Allegro, Andante, Menuet, Presto
!!!AIN: 1 empty 2 flt 2 violn
!!!key:
**kern	**dynam	**kern	**dynam	**kern	**dynam	**kern	**dynam	**kern
*part5	*part5	*part4	*part4	*part3	*part3	*part2	*part2	*part1
*group2	*	*group2	*	*group2	*	*group1	*	*group1
*staff5	*	*staff4	*	*staff3	*	*staff2	*	*staff1
*Iempty	*	*Ivioln	*	*Ivioln	*	*Iflt	*	*Iflt
*I"Baſso	*	*I"Violino Secundo	*	*I"Violino Primo	*	*I"Flauto Secundo	*	*I"Flauto Primo
*I'b	*	*I'vn 2	*	*I'vn 1	*	*I'fl 2	*	*I'fl 1
*clefF4	*	*clefG2	*	*clefG2	*	*clefG2	*	*clefG2
*k[f#c#]	*	*k[f#c#]	*	*k[f#c#]	*	*k[f#c#]	*	*k[f#c#]
*D:	*	*D:	*	*D:	*	*D:	*	*D:
*M3/8	*	*M3/8	*	*M3/8	*	*M3/8	*	*M3/8
!	!	!	!	!	!	!LO:TX:a:t=P:problem= błędne metrum 3/4	!	!
!LO:TX:a:t=Presto	!	!LO:TX:a:t=Presto	!	!	!	!LO:TX:a:t=Presto:problem=wpisane ołówkiem	!	!LO:TX:a:t=Presto
8r	.	8a/	.	8a/	.	8r	.	8r
=1	=1	=1	=1	=1	=1	=1	=1	=1
*8\right	*	*	*	*	*	*	*	*
8D\L	.	4.dd\	.	4.dd\	.	4.dd\	.	4.dd\
8F#\	.	.	.	.	.	.	.	.
8E\J	.	.	.	.	.	.	.	.
=2	=2	=2	=2	=2	=2	=2	=2	=2
8D\L	.	4.aa\	.	4.aa\	.	4.aa\	.	4.aa\
8F#\	.	.	.	.	.	.	.	.
8E\J	.	.	.	.	.	.	.	.
=3	=3	=3	=3	=3	=3	=3	=3	=3
8D\L	.	4ddd\	.	4ddd\	.	8aa\L	.	4ddd\
8E\	.	.	.	.	.	8gg\	.	.
8F#\J	.	8aa\	.	8aa\	.	8ff#\J	.	8aa\
=4	=4	=4	=4	=4	=4	=4	=4	=4
!LO:TX:a:t=P:problem=mixed beam	!	!	!	!	!	!	!	!
8G\L	.	16aa\LL	.	16aa\LL	.	16ff#\LL	.	16aa\LL
.	.	16gg\JJ	.	16gg\JJ	.	16ee\JJ	.	16gg\JJ
8A\	.	8ff#\L	.	8ff#\L	.	8dd\L	.	8ff#\L
8AA/J	.	8ee\J	.	8ee\J	.	8cc#\J	.	8ee\J
=5	=5	=5	=5	=5	=5	=5	=5	=5
8D\L	.	4.dd\	.	4.dd\	.	4.dd\	.	4.dd\
8F#\	.	.	.	.	.	.	.	.
8D\J	.	.	.	.	.	.	.	.
=6	=6	=6	=6	=6	=6	=6	=6	=6
8D\L	.	4.aa\	.	4.aa\	.	4.aa\	.	4.aa\
8F#\	.	.	.	.	.	.	.	.
8E\J	.	.	.	.	.	.	.	.
=7	=7	=7	=7	=7	=7	=7	=7	=7
8D\L	.	4ddd\	.	4ddd\	.	8aa\L	.	4ddd\
8E\	.	.	.	.	.	8gg\	.	.
8F#\J	.	8aa\	.	8aa\	.	8ff#\J	.	8aa\
=8	=8	=8	=8	=8	=8	=8	=8	=8
!LO:TX:a:t=P:problem=mixed beam	!	!	!	!	!	!	!	!
8G\L	.	16aa\LL	.	16aa\LL	.	16ff#\LL	.	16aa\LL
.	.	16gg\JJ	.	16gg\JJ	.	16ee\JJ	.	16gg\JJ
8A\	.	8ff#\L	.	8ff#\L	.	8dd\L	.	8ff#\L
8AA/J	.	8ee\J	.	8ee\J	.	8cc#\J	.	8ee\J
=9	=9	=9	=9	=9	=9	=9	=9	=9
4D/	.	8dd\L	.	8dd\L	.	4dd\	.	4dd\
.	.	(16dd\L	.	(16dd\L	.	.	.	.
.	.	16ee\	.	16ee\	.	.	.	.
8r	.	16ff#\	.	16ff#\	.	8r	.	8r
.	.	16gg\JJ)	.	16gg\JJ)	.	.	.	.
=10	=10	=10	=10	=10	=10	=10	=10	=10
8A\L	.	4.aa\	.	4.aa\	.	8cc#\L	.	4.aa\
8B\	.	.	.	.	.	8dd\	.	.
8c#\J	.	.	.	.	.	8ee\J	.	.
=11	=11	=11	=11	=11	=11	=11	=11	=11
8e\L	.	4.gg\	.	4.gg\	.	8gg\L	.	4.gg\
8d\	.	.	.	.	.	8ff#\	.	.
8c#\J	.	.	.	.	.	8ee\J	.	.
=12	=12	=12	=12	=12	=12	=12	=12	=12
*4\right	*	*	*	*	*	*	*	*
4d\	.	8ff#\L	.	8ff#\L	.	4dd\	.	4ff#\
.	.	16dd\L	.	(16dd\L	.	.	.	.
.	.	(16ee\	.	16ee\	.	.	.	.
8r	.	16ff#\	.	16ff#\)	.	8r	.	8r
.	.	16gg\JJ)	.	16gg\JJ	.	.	.	.
!LO:LB:g=original	!	!	!	!	!	!	!	!
=13	=13	=13	=13	=13	=13	=13	=13	=13
8AA/L	.	4aa\	.	4aa\	.	4.a/	.	4aa\
8BB/	.	.	.	.	.	.	.	.
8C#/J	.	16ggT\LL	.	16gg\LL	.	.	.	8gg\
.	.	32ff#\L	.	32ff#\L	.	.	.	.
.	.	32gg\JJJ	.	32gg\JJJ	.	.	.	.
=14	=14	=14	=14	=14	=14	=14	=14	=14
8D\L	.	8ff#\L	.	8ff#\L	.	4.a/	.	8ff#\L
8F#\	.	8dd\	.	8dd\	.	.	.	8dd\
8D\J	.	8ff#\J	.	8ff#\J	.	.	.	8ff#\J
=15	=15	=15	=15	=15	=15	=15	=15	=15
8AA/L	.	4aa\	.	4aa\	.	4.a/	.	4aa\
8BB/	.	.	.	.	.	.	.	.
8C#/J	.	16gg\LL	.	16ggT\LL	.	.	.	8gg\
.	.	32ff#\L	.	32ff#\L	.	.	.	.
.	.	32gg\JJJ	.	32gg\JJJ	.	.	.	.
=16	=16	=16	=16	=16	=16	=16	=16	=16
8D\L	.	8ff#\L	.	4ff#\	.	4.a/	.	8ff#\L
8F#\	.	8dd\	.	.	.	.	.	8dd\
8D\J	.	8ff#\J	.	8dd\	.	.	.	8ff#\J
!	!	!LO:LB:g=original	!	!	!	!	!	!
=17	=17	=17	=17	=17	=17	=17	=17	=17
*	*	*^	*	*^	*	*	*	*
!LO:TX:a:t=P:problem=mixed beam	!	!	!	!	!	!	!	!	!	!
8C#/L	.	4ee/	4a\	.	4ee/	4a\	.	4.gg\	.	4.aa\
8AA/	.	.	.	.	.	.	.	.	.	.
8E\J	.	16ggT\LL	8ryy	.	16ggT\LL	8ryy	.	.	.	.
.	.	32ff#\L	.	.	32ff#\L	.	.	.	.	.
.	.	32gg\JJJ	.	.	32gg\JJJ	.	.	.	.	.
*	*	*v	*v	*	*	*	*	*	*	*
*	*	*	*	*v	*v	*	*	*	*
!	!	!	!	!LO:LB:g=original	!	!	!	!
=18	=18	=18	=18	=18	=18	=18	=18	=18
!LO:TX:a:t=P:problem=mixed beam	!	!	!	!	!	!	!	!
8D/L	.	4ff#\	.	4ff#\	.	4.ff#\	.	4.aa\
8AA/	.	.	.	.	.	.	.	.
8F#\J	.	8dd\	.	8dd\	.	.	.	.
=19	=19	=19	=19	=19	=19	=19	=19	=19
*	*	*^	*	*^	*	*	*	*
!	!	!LO:N:vis=4.	!LO:N:vis=4.	!	!	!	!	!	!	!LO:TX:a:t=P:problem=takty 19-20 zapisane repetycją
8C#/L	.	4ee/	4a\	.	4ee/	4a\	.	4.gg\	.	4.aa\yy
8AA/	.	.	.	.	.	.	.	.	.	.
8E/J	.	16ggT\LL	8ryy	.	16ggT\LL	8ryy	.	.	.	.
.	.	32ff#\L	.	.	32ff#\L	.	.	.	.	.
.	.	32gg\JJJ	.	.	32gg\JJJ	.	.	.	.	.
*	*	*v	*v	*	*	*	*	*	*	*
*	*	*	*	*v	*v	*	*	*	*
=20	=20	=20	=20	=20	=20	=20	=20	=20
!LO:TX:a:t=P:problem=mixed beam	!	!	!	!	!	!	!	!
8D/L	.	4ff#\	.	4ff#\	.	4.ff#\	.	4.aa\yy
8BB/	.	.	.	.	.	.	.	.
8F#\J	.	8dd\	.	8dd\	.	.	.	.
!	!	!	!	!	!	!	!	!LO:LB:g=original
=21	=21	=21	=21	=21	=21	=21	=21	=21
*	*	*^	*	*^	*	*	*	*
!LO:TX:a:t=P:problem=mixed beam	!	!	!	!	!	!	!	!	!	!
8C#/L	.	4ee/	4a\	.	4ee/	4a\	.	4gg\	.	4aa\
8AA/	.	.	.	.	.	.	.	.	.	.
8E\J	.	16ggT\LL	8ryy	.	16ggT\LL	8ryy	.	8cc#\	.	8gg\
.	.	32ff#\L	.	.	32ff#\L	.	.	.	.	.
.	.	32gg\JJJ	.	.	32gg\JJJ	.	.	.	.	.
*	*	*v	*v	*	*	*	*	*	*	*
*	*	*	*	*v	*v	*	*	*	*
=22	=22	=22	=22	=22	=22	=22	=22	=22
!	!	!LO:SIC:s=4ff#:v	!	!	!	!	!	!
8D\L	.	4gg\	.	4ff#\	.	4dd\	.	4ff#\
8A\	.	.	.	.	.	.	.	.
8G\J	.	16bb\LL	.	16bbT\LL	.	8cc#\	.	8bb\
.	.	32aa\L	.	32aa\L	.	.	.	.
.	.	32bb\JJJ	.	32bb\JJJ	.	.	.	.
=23	=23	=23	=23	=23	=23	=23	=23	=23
8F#\L	.	8aa\L	.	8aa\L	.	8dd\L	.	8aa\L
8D\	.	8ddd\	.	8ddd\	.	8ff#\	.	8ddd\
8AA\J	.	8aa\J	.	8aa\J	.	8ff#\J	.	8aa\J
=24	=24	=24	=24	=24	=24	=24	=24	=24
8F#\L	.	4aa\	.	4aa\	.	4ff#\	.	4aa\
8D\	.	.	.	.	.	.	.	.
8AA\J	.	16ff#\LL	.	16ff#\LL	.	16dd\LL	.	16ff#\LL
.	.	16gg\JJ	.	16gg\JJ	.	16ee\JJ	.	16gg\JJ
=25	=25	=25	=25	=25	=25	=25	=25	=25
!	!	!	!	!	!	!LO:TX:a:t=P:problem=takty 25-26 zapisane repetycją	!	!
8F#\L	.	8aa\L	.	8aa\L	.	8dd\Lyy	.	8aa\L
8D\	.	8ddd\	.	8ddd\	.	8ff#\yy	.	8ddd\
8AA\J	.	8aa\J	.	8aa\J	.	8ff#\Jyy	.	8aa\J
!LO:LB:g=original	!	!	!	!	!	!	!	!
=26	=26	=26	=26	=26	=26	=26	=26	=26
8F#\L	.	4aa\	.	4aa\	.	4ff#\yy	.	4aa\
8D\	.	.	.	.	.	.	.	.
8AA\J	.	16ff#\LL	.	16ff#\LL	.	16dd\LLyy	.	16ff#\LL
.	.	16gg\JJ	.	16gg\JJ	.	16ee\JJyy	.	16gg\JJ
!	!	!	!	!	!	!LO:LB:g=original	!	!
=27	=27	=27	=27	=27	=27	=27	=27	=27
!LO:TX:a:t=P:problem=mixed beam	!	!	!	!	!	!	!	!
8D/L	.	16aa\LL	.	16aa\LL	.	8ff#\L	.	8aa\L
.	.	16bb\	.	16bb\	.	.	.	.
8A\	.	16aa\	.	(16aa\	.	8dd\	.	8ff#\
.	.	16gg\	.	16gg\	.	.	.	.
8AA/J	.	16ff#\	.	16ff#\)	.	8cc#\J	.	8ee\J
.	.	16ee\JJ	.	16ee\JJ	.	.	.	.
=28	=28	=28	=28	=28	=28	=28	=28	=28
4D/	.	4dd\	.	4dd\	.	4dd\	.	4dd\
8r	.	8r	.	8r	.	8r	.	8r
=29	=29	=29	=29	=29	=29	=29	=29	=29
!	!	!	!	!	!	!LO:TX:a:t=8	!	!
!LO:N:vis=00	!	!	!	!	!	!LO:N:vis=00	!	!LO:N:vis=00
1.r	.	4.r	.	4aa\	p	1.r	.	1.r
.	.	.	.	8bb-X\	.	.	.	.
=30	=30	=30	=30	=30	=30	=30	=30	=30
!	!	!	!LO:DY:a	!	!LO:DY:t=p&colon;	!	!	!
.	.	8d/L	p	4aa\	p	.	.	.
.	.	8e/	.	.	.	.	.	.
.	.	8fn/J	.	8dd\	.	.	.	.
=31	=31	=31	=31	=31	=31	=31	=31	=31
.	.	4c#X/	.	8ee\L	.	.	.	.
.	.	.	.	8ffn\	.	.	.	.
.	.	8A/	.	8gg\J	.	.	.	.
=32	=32	=32	=32	=32	=32	=32	=32	=32
.	.	.	.	8qqaa/	.	.	.	.
.	.	16d/LL	.	4gg\	.	.	.	.
.	.	16e/	.	.	.	.	.	.
.	.	16fn/	.	.	.	.	.	.
.	.	16g/J	.	.	.	.	.	.
.	.	8a/J	.	8ee\	.	.	.	.
!	!	!LO:LB:g=original	!	!LO:LB:g=original	!	!	!	!
=33	=33	=33	=33	=33	=33	=33	=33	=33
!LO:N:vis=00	!	!	!	!	!	!LO:N:vis=00	!	!LO:N:vis=00
1.r	.	4.r	.	4aa\	.	1.r	.	1.r
.	.	.	.	8bb-X\	.	.	.	.
=34	=34	=34	=34	=34	=34	=34	=34	=34
.	.	8d/L	.	4aa\	.	.	.	.
.	.	8e/	.	.	.	.	.	.
.	.	8fn/J	.	8dd\	.	.	.	.
=35	=35	=35	=35	=35	=35	=35	=35	=35
.	.	8c#X/L	.	(16ee\LL	.	.	.	.
.	.	.	.	16ffn\JJ)	.	.	.	.
.	.	8A/	.	8gg\L	.	.	.	.
.	.	8d/J	.	8ff\J	.	.	.	.
=36	=36	=36	=36	=36	=36	=36	=36	=36
.	.	4A/	.	4ee\	.	.	.	.
.	.	8r	.	8r	.	.	.	.
=37	=37	=37	=37	=37	=37	=37	=37	=37
!	!	!	!	!	!	!	!LO:DY:a:t=Pia	!
8r	.	4.dd\	.	4.ff#X\	.	4.ff#\	p	4.ddd\
!	!LO:DY:t=p&colon;	!	!	!	!	!	!	!
8d\L	p	.	.	.	.	.	.	.
!LO:SIC:s=8cn:v	!	!	!	!	!	!	!	!
8c#\J	.	.	.	.	.	.	.	.
=38	=38	=38	=38	=38	=38	=38	=38	=38
8B-X\L	.	4.dd\	.	4.gg\	.	4.gg\	.	4.ddd\
8A\	.	.	.	.	.	.	.	.
8G\J	.	.	.	.	.	.	.	.
=39	=39	=39	=39	=39	=39	=39	=39	=39
8r	.	4.dd\	.	4.gg#X\	.	4gg#X\	.	4ddd\
8e\L	.	.	.	.	.	.	.	.
8d\J	.	.	.	.	.	8b/	.	8gg#X\
=40	=40	=40	=40	=40	=40	=40	=40	=40
8c#X\L	.	8ee\L	.	4.aa\	.	4.cc#\	.	4.aa\
8B-X\	.	8dd\	.	.	.	.	.	.
8A\J	.	8cc#X\J	.	.	.	.	.	.
=41	=41	=41	=41	=41	=41	=41	=41	=41
!	!	!	!	!	!	!	!	!LO:TX:a:t=6
!LO:N:vis=00	!	!	!	!	!	!LO:N:vis=00	!	!LO:N:vis=00
1.r	.	8fn/L	.	4aa\	.	1.r	.	1.r
.	.	8d/	.	.	.	.	.	.
.	.	8g/J	.	8bb-X\	.	.	.	.
=42	=42	=42	=42	=42	=42	=42	=42	=42
!	!	!LO:SIC:s=8fn:v	!	!	!	!	!	!
.	.	8f#/L	.	4aa\	.	.	.	.
.	.	8d/	.	.	.	.	.	.
!	!	!	!	!LO:N:vis=4	!	!	!	!
.	.	8g/J	.	8bb-X\	.	.	.	.
=43	=43	=43	=43	=43	=43	=43	=43	=43
!	!	!LO:TX:a:t=P:problem=takty 43-44 zapisane repetycją	!	!LO:TX:a:t=P:problem=takty 43-44 zapisane repetycją	!	!	!	!
.	.	8fn/Lyy	.	4aa\yy	.	.	.	.
.	.	8d/yy	.	.	.	.	.	.
.	.	8g/Jyy	.	8bb-X\yy	.	.	.	.
=44	=44	=44	=44	=44	=44	=44	=44	=44
!	!	!LO:SIC:s=8fn:v	!	!	!	!	!	!
.	.	8f#/Lyy	.	4aa\yy	.	.	.	.
.	.	8d/yy	.	.	.	.	.	.
!	!	!	!	!LO:N:vis=4	!	!	!	!
.	.	8g/Jyy	.	8bb-X\yy	.	.	.	.
=45	=45	=45	=45	=45	=45	=45	=45	=45
!	!	!LO:SIC:s=16fn:v	!	!	!	!	!	!
!LO:N:vis=0	!	!	!	!	!	!LO:N:vis=0	!	!LO:N:vis=0
2.r	.	16f#/LL	.	16aa\LL	.	2.r	.	2.r
.	.	16g/JJ	.	16gg\JJ	.	.	.	.
.	.	8a/L	.	8ffn\L	.	.	.	.
.	.	8A/J	.	8ee\J	.	.	.	.
=46	=46	=46	=46	=46	=46	=46	=46	=46
.	.	8d/L	.	4dd\	.	.	.	.
.	.	8f#/	.	.	.	.	.	.
.	.	8a/J	.	8r	.	.	.	.
=47	=47	=47	=47	=47	=47	=47	=47	=47
!	!	!	!LO:DY:t=p&colon;	!	!	!	!	!
8r	.	4.dd\	p	4.ff#\	p	4.ff#X\	.	4.ddd\
8d\L	.	.	.	.	.	.	.	.
!LO:SIC:s=8cn:v	!	!	!	!	!	!	!	!
8c#\J	.	.	.	.	.	.	.	.
!	!	!	!	!	!	!	!	!LO:LB:g=original
=48	=48	=48	=48	=48	=48	=48	=48	=48
8B-X\L	.	4.dd\	.	4.gg\	.	4.gg\	.	4.ddd\
8A\	.	.	.	.	.	.	.	.
8G\J	.	.	.	.	.	.	.	.
=49	=49	=49	=49	=49	=49	=49	=49	=49
8r	.	4.dd\	.	4.gg#X\	.	4gg#X\	.	4ddd\
8e\L	.	.	.	.	.	.	.	.
8d\J	.	.	.	.	.	8b/	.	8gg#X\
=50	=50	=50	=50	=50	=50	=50	=50	=50
!	!	!	!	!	!	!LO:N:vis=4.	!	!
8c#X\L	.	8ee\L	.	4.aa\	.	4cc#\	.	4aa\
8B-X\	.	8dd\	.	.	.	.	.	.
8A\J	.	8cc#X\J	.	.	.	8r	.	8r
!LO:LB:g=original	!	!	!	!LO:LB:g=original	!	!	!	!
=51	=51	=51	=51	=51	=51	=51	=51	=51
!LO:N:vis=00	!	!	!	!	!	!LO:N:vis=00	!	!LO:N:vis=00
1.r	.	8fn/L	.	(4aa\	.	1.r	.	1.r
.	.	8d/	.	.	.	.	.	.
.	.	8g/J	.	8bb-X\)	.	.	.	.
=52	=52	=52	=52	=52	=52	=52	=52	=52
!	!	!LO:SIC:s=8fn:v	!	!	!	!	!	!
.	.	8f#/L	.	(4aa\	.	.	.	.
.	.	8d/	.	.	.	.	.	.
!	!	!	!	!LO:SIC:s=8bb-:v	!	!	!	!
.	.	8g/J	.	8bb\)	.	.	.	.
=53	=53	=53	=53	=53	=53	=53	=53	=53
!	!	!LO:TX:a:t=P:problem=takty 53-54 zapisane repetycją	!	!	!	!	!	!
.	.	8fn/Lyy	.	(4aa\	.	.	.	.
.	.	8d/yy	.	.	.	.	.	.
!	!	!	!	!LO:SIC:s=8bb-:v	!	!	!	!
.	.	8g/Jyy	.	8bb\)	.	.	.	.
=54	=54	=54	=54	=54	=54	=54	=54	=54
!	!	!LO:SIC:s=8fn:v	!	!	!	!	!	!
.	.	8f#/Lyy	.	(4aa\	.	.	.	.
.	.	8d/yy	.	.	.	.	.	.
!	!	!	!	!LO:SIC:s=8bb-:v	!	!	!	!
.	.	8g/Jyy	.	8bb\)	.	.	.	.
!	!	!LO:LB:g=original	!	!	!	!	!	!
=55	=55	=55	=55	=55	=55	=55	=55	=55
!LO:N:vis=0	!	!	!	!	!	!	!	!
2.r	.	16fn/LL	.	16aa\LL	.	4.r	.	4.r
.	.	16g/J	.	16gg\JJ	.	.	.	.
.	.	8a/	.	8ffn\L	.	.	.	.
!	!	!	!	!	!	!	!	!LO:TX:b:t=Verte
.	.	8A/J	.	8ee\J	.	.	.	.
!	!	!	!	!	!	!	!	!LO:PB:g=original
=56	=56	=56	=56	=56	=56	=56	=56	=56
.	.	4d/	.	4dd\	.	8r	.	8r
.	.	.	.	.	.	8r	.	8r
!	!	!	!LO:DY:t=f&colon;	!	!LO:DY:t=for	!	!LO:DY:t=f&colon;	!
.	.	8a/	f	8a/	f	8a/	f	8a/
=57	=57	=57	=57	=57	=57	=57	=57	=57
8D\L	.	4.dd\	.	4.dd\	.	4.dd\	.	4.dd\
8F#\	.	.	.	.	.	.	.	.
8E\J	.	.	.	.	.	.	.	.
=58	=58	=58	=58	=58	=58	=58	=58	=58
8D\L	.	4.aa\	.	4.aa\	.	4.aa\	.	4.aa\
8F#\	.	.	.	.	.	.	.	.
8E\J	.	.	.	.	.	.	.	.
=59	=59	=59	=59	=59	=59	=59	=59	=59
8D\L	.	4ddd\	.	4ddd\	.	4aa\	.	4ddd\
8E\	.	.	.	.	.	.	.	.
8F#\J	.	8aa\	.	8aa\	.	8dd\	.	8aa\
=60	=60	=60	=60	=60	=60	=60	=60	=60
!LO:TX:a:t=P:problem=mixed beam	!	!	!	!	!	!	!	!
8G\L	.	16aa\LL	.	16aa\LL	.	16ff#\LL	.	16aa\LL
.	.	16gg\JJ	.	16gg\JJ	.	16ee\JJ	.	16gg\JJ
8A\	.	8ff#\L	.	8ff#\L	.	8dd\L	.	8ff#\L
8AA/J	.	8ee\J	.	8ee\J	.	8cc#\J	.	8ee\J
=61	=61	=61	=61	=61	=61	=61	=61	=61
8D\L	.	4.dd\	.	4.dd\	.	4.dd\	.	4.dd\
8F#\	.	.	.	.	.	.	.	.
8E\J	.	.	.	.	.	.	.	.
=62	=62	=62	=62	=62	=62	=62	=62	=62
8D\L	.	4.aa\	.	4.aa\	.	4.aa\	.	4.aa\
8F#\	.	.	.	.	.	.	.	.
8E\J	.	.	.	.	.	.	.	.
=63	=63	=63	=63	=63	=63	=63	=63	=63
8D\L	.	4ddd\	.	4ddd\	.	4ff#\	.	4ddd\
8F#\	.	.	.	.	.	.	.	.
8D\J	.	8aa\	.	8aa\	.	8ee\	.	8aa\
!	!	!	!	!LO:LB:g=original	!	!	!	!
=64	=64	=64	=64	=64	=64	=64	=64	=64
8AA/L	.	4aa\	.	4aa\	.	8cc#\L	.	4aa\
8BB/	.	.	.	.	.	8dd\	.	.
8C#/J	.	16gg\LL	.	16ggT\LL	.	8ee\J	.	8gg\
.	.	32ff#\L	.	32ff#\L	.	.	.	.
.	.	32gg\JJJ	.	32gg\JJJ	.	.	.	.
=65	=65	=65	=65	=65	=65	=65	=65	=65
8D\L	.	8ff#\L	.	8ff#\L	.	4dd\	.	4ff#\
8F#\	.	8dd\	.	8dd\	.	.	.	.
8D\J	.	8ff#\J	.	8ff#\J	.	8r	.	8r
!	!	!	!	!	!	!LO:LB:g=original	!	!
=66	=66	=66	=66	=66	=66	=66	=66	=66
8AA/L	.	4aa\	.	4aa\	.	8cc#\L	.	4aa\
8BB/	.	.	.	.	.	8dd\	.	.
8C#/J	.	16gg\LL	.	16ggT\LL	.	8ee\J	.	8gg\
.	.	32ff#\L	.	32ff#\L	.	.	.	.
.	.	32gg\JJJ	.	32gg\JJJ	.	.	.	.
=67	=67	=67	=67	=67	=67	=67	=67	=67
8D\L	.	8ff#\L	.	8ff#\L	.	4dd\	.	4ff#\
8F#\	.	8dd\	.	8dd\	.	.	.	.
8D\J	.	8ff#\J	.	8ff#\J	.	8r	.	8r
!	!	!LO:LB:g=original	!	!	!	!	!	!
=68	=68	=68	=68	=68	=68	=68	=68	=68
*	*	*^	*	*^	*	*	*	*
8C#/L	.	4ee/	4a\	.	4ee/	4a\	.	4.gg\	.	4.ccc#\
8AA/	.	.	.	.	.	.	.	.	.	.
8E/J	.	16ggT\LL	8ryy	.	16ggT\LL	8ryy	.	.	.	.
.	.	32ff#\L	.	.	32ff#\L	.	.	.	.	.
.	.	32gg\JJJ	.	.	32gg\JJJ	.	.	.	.	.
*	*	*v	*v	*	*	*	*	*	*	*
*	*	*	*	*v	*v	*	*	*	*
=69	=69	=69	=69	=69	=69	=69	=69	=69
8D/L	.	4ff#\	.	4ff#\	.	4.ff#\	.	4.ddd\
8AA/	.	.	.	.	.	.	.	.
8F#/J	.	8dd\	.	8dd\	.	.	.	.
!LO:LB:g=original	!	!	!	!	!	!	!	!
=70	=70	=70	=70	=70	=70	=70	=70	=70
*	*	*^	*	*^	*	*	*	*
8C#/L	.	4ee/	4a\	.	4ee/	4a\	.	4.gg\	.	4.ccc#\
8AA/	.	.	.	.	.	.	.	.	.	.
8E/J	.	16gg\LL	8ryy	.	16ggT\LL	8ryy	.	.	.	.
.	.	32ff#\L	.	.	32ff#\L	.	.	.	.	.
.	.	32gg\JJJ	.	.	32gg\JJJ	.	.	.	.	.
*	*	*v	*v	*	*	*	*	*	*	*
*	*	*	*	*v	*v	*	*	*	*
=71	=71	=71	=71	=71	=71	=71	=71	=71
8D/L	.	4ff#\	.	4ff#\	.	4.ff#\	.	4.ddd\
8BB/	.	.	.	.	.	.	.	.
8F#/J	.	8dd\	.	8dd\	.	.	.	.
=72	=72	=72	=72	=72	=72	=72	=72	=72
*	*	*^	*	*^	*	*	*	*
8C#/L	.	4ee/	4a\	.	4ee/	4a\	.	4.gg\	.	4.ccc#\
8AA/	.	.	.	.	.	.	.	.	.	.
8E/J	.	16ggT\LL	8ryy	.	16gg\LL	8ryy	.	.	.	.
.	.	32ff#\L	.	.	32ff#\L	.	.	.	.	.
.	.	32gg\JJJ	.	.	32gg\JJJ	.	.	.	.	.
*	*	*v	*v	*	*	*	*	*	*	*
*	*	*	*	*v	*v	*	*	*	*
!	!	!	!	!	!	!	!	!LO:LB:g=original
=73	=73	=73	=73	=73	=73	=73	=73	=73
8D\L	.	4ff#\	.	4ff#\	.	4ff#\	.	4ddd\
8A\	.	.	.	.	.	.	.	.
8G\J	.	16bbT\LL	.	16bbT\LL	.	8bb\	.	8bb\
.	.	32aa\L	.	32aa\L	.	.	.	.
.	.	32bb\JJJ	.	32bb\JJJ	.	.	.	.
=74	=74	=74	=74	=74	=74	=74	=74	=74
8F#\L	.	4aa\	.	4aa\	.	4aa\	.	4aa\
8D\	.	.	.	.	.	.	.	.
8F#\J	.	8ddd\	.	8ddd\	.	8aa\	.	8ddd\
=75	=75	=75	=75	=75	=75	=75	=75	=75
!LO:TX:a:t=P:problem=mixed beam	!	!	!	!	!	!	!	!
8G\L	.	16aa\LL	.	16aa\LL	.	16ff#\LL	.	16aa\LL
.	.	16gg\JJ	.	16gg\JJ	.	16ee\JJ	.	16gg\JJ
8A\	.	8ff#\L	.	8ff#\L	.	8dd\L	.	8ff#\L
8AA/J	.	8ee\J	.	8ee\J	.	8cc#\J	.	8ee\J
!	!	!	!	!LO:LB:g=original	!	!	!	!
=76	=76	=76	=76	=76	=76	=76	=76	=76
4D/	.	8dd\L	.	8dd\L	.	8dd\	.	8dd\L
.	.	8ddd\	.	8ddd\	.	8r	.	8ddd\
8r	.	8aa\J	.	8aa\J	.	8ff#\	.	8aa\J
=77	=77	=77	=77	=77	=77	=77	=77	=77
8D\L	.	4aa\	.	4aa\	.	4ff#\	.	4aa\
8F#\	.	.	.	.	.	.	.	.
8E\J	.	16ff#\LL	.	16ff#\LL	.	16dd\LL	.	16ff#\LL
.	.	16gg\JJ	.	16gg\JJ	.	16ee\JJ	.	16gg\JJ
=78	=78	=78	=78	=78	=78	=78	=78	=78
8D\L	.	16aa\LL	.	16aa\LL	.	16ff#\LL	.	16aa\LL
.	.	16bb\	.	16bb\	.	16gg\	.	16bb\
8F#\	.	(16aa\	.	(16aa\	.	16ff#\	.	16aa\
.	.	16gg\	.	16gg\	.	16ee\	.	16gg\
8A\J	.	16ff#\	.	16ff#\)	.	16dd\	.	16ff#\
.	.	16ee\JJ)	.	16ee\JJ	.	16cc#\JJ	.	16ee\JJ
!	!	!LO:LB:g=original	!	!	!	!	!	!
=79	=79	=79	=79	=79	=79	=79	=79	=79
4D/	.	8dd\L	.	8dd\L	.	8dd\	.	8dd\L
.	.	8ddd\	.	8ddd\	.	8r	.	8ddd\
8r	.	8aa\J	.	8aa\J	.	8ff#\	.	8aa\J
=80	=80	=80	=80	=80	=80	=80	=80	=80
8D\L	.	4aa\	.	4aa\	.	8ff#\	.	4aa\
8F#\	.	.	.	.	.	8r	.	.
8E\J	.	16ff#\LL	.	16ff#\LL	.	16dd\LL	.	16ff#\LL
.	.	16gg\JJ	.	16gg\JJ	.	16ee\JJ	.	16gg\JJ
=81	=81	=81	=81	=81	=81	=81	=81	=81
8D\L	.	16aa\LL	.	16aa\LL	.	16ff#\LL	.	16aa\LL
.	.	16bb\	.	16bb\	.	16gg\	.	16bb\
8F#\	.	16aa\	.	16aa\	.	16ff#\	.	16aa\
.	.	16gg\	.	16gg\	.	16ee\	.	16gg\
8A\J	.	16ff#\	.	16ff#\	.	16dd\	.	16ff#\
.	.	16ee\JJ	.	16ee\JJ	.	16cc#\JJ	.	16ee\JJ
=82	=82	=82	=82	=82	=82	=82	=82	=82
8D\L	.	4dd\	.	4dd\	.	4dd\	.	4dd\
8F#\	.	.	.	.	.	.	.	.
8D\J	.	8ff# 8a 8d/	.	8ff# 8a 8d/	.	8dd\	.	8ff#\
!LO:LB:g=original	!	!	!	!	!	!	!	!
=83	=83	=83	=83	=83	=83	=83	=83	=83
!LO:TX:a:t=P:problem=mixed beam	!	!	!	!	!	!	!	!
8G\L	.	4gg 4b 4d/	.	4gg 4b 4d/	.	4ee\	.	4gg\
8AA/	.	.	.	.	.	.	.	.
8AA/J	.	8ee 8cc# 8a/	.	8ee 8cc# 8a/	.	8cc#\	.	8ee\
!	!	!	!	!	!	!LO:LB:g=original	!	!
=84	=84	=84	=84	=84	=84	=84	=84	=84
8D\L	.	4ff# 4a 4d/	.	4ff# 4a 4d/	.	4dd\	.	4ff#\
8F#\	.	.	.	.	.	.	.	.
8D\J	.	8ff# 8a 8d/	.	8ff# 8a 8d/	.	8ff#\	.	8aa\
=85	=85	=85	=85	=85	=85	=85	=85	=85
*	*	*^	*	*	*	*	*	*
!LO:TX:a:t=P:problem=mixed beam	!	!	!	!	!	!	!	!	!
8G\L	.	4gg 4b 4d/	4ryy	.	4gg 4b 4d/	.	4ee\	.	4gg\
8AA/	.	.	.	.	.	.	.	.	.
8AA/J	.	8ee 8cc#/	8a\	.	8ee 8cc# 8a/	.	8cc#\	.	8ee\
*	*	*v	*v	*	*	*	*	*	*
!	!	!	!	!	!	!	!	!LO:LB:g=original
=86	=86	=86	=86	=86	=86	=86	=86	=86
8D/L	.	8ff#L 8a 8d/	.	8ff#L 8a 8d/	.	8dd\L	.	8ff#\L
8D/	.	8ff# 8a 8d/	.	8ff# 8a 8d/	.	8dd\	.	8ff#\
8D/J	.	8ff#J 8a 8d/	.	8ff#J 8a 8d/	.	8dd\J	.	8ff#\J
=87	=87	=87	=87	=87	=87	=87	=87	=87
4D/	.	4ff# 4a 4d/	.	4ff# 4a 4d/	.	4dd\	.	4ff#\
8r	.	8r	.	8r	.	8r	.	8r
==;;	==	==;;	==	==;;	==	==;;	==	==;;
*-	*-	*-	*-	*-	*-	*-	*-	*-
!!!system-decoration: [g1][g2]
!!!ENC: Marta Lawrence
!!!END: 2020-10-14
!!!ENC: Andrzej Borzym
!!!END: 2020-06-04
